X: 1
T: Mueira Anterga
M: 6/8
L: 1/8
R: jig
K: Dmaj
FA|:dcd AFA|dcd AFA|AEF GAB|B2 A AFA|
dcd AFA|dcd AFA|AEF GFE|D4 FA:|
|:F2D FGF|F2D FGF|EFG GFE|F2D FGF|
F2D FGF|F2D BcB|EFG GFE|1D3 FGF:|2D3 D3||
